X:2

T:Basket of Turf, The

L:1/8

M:6/8

K:Edor

D|GBB BAG|FAA AFD|GBB Bcd|AGF E2D|GBB BAG|FAA AFD|BAB Bcd|AGF E2:|

|:A|Bee efg|fef dBA|Bee eag|fdc d2A|Bee efg|fef dBA|BAB Bcd|AGF E2:|

           

BASKET OF YARN. American, Reel. G Major. Standard tuning. AAB (Miller): AA’BB’ (Songer). A modern compostion from East Alstead, New Hampshire, pianist and fiddler Randy Miller. Source for notated version: George Peck (Portland, Ore.) with Jigsaw [Songer]. Miller (Fiddler’s Throne), 2004; No. 117, pg. 80. Songer (Portland Collection), 1997; pg. 23. RM-1C, Randy Miller - “The Lore of the Fingerboard” (1990). George Penk, Clyde Curley & Susan Songer – “A Portland Selection: Contra Dance Music in the Pacific Northwest” (2000).

           

BASS REEL. AKA and see "New Christmas," "New Christenmiss Day."

           

BASS RIVER. Irish, Hornpipe. D Major. Standard tuning. AABB. Composed by Falmouth, Massachusetts, musician and writer Bill Black. Black (Music’s the Very Best Thing), 1996; No. 80.

